X:1
T: Bobby Brown's Canadian Breakdown             2 bows, 4 rounds
T: 4 x 32R 4C (Bob Millar)
P: Fiddlehead Reel
C: By Jim Magill, from Bobby Brown Colln recording
C: Arr. T. Traub 8-25-2004
R: reel
M: 4/4
K: G
L: 1/8
|: D2|"G"G3  G G2 G2 |BGBd g2 d2|g2 d2 gdBG|"C"cBAG "D"F2 D2|"G"G3 G G2 G2|
BGBd g2 d2|"D"D2 FG ABcd |"G"B2 G2 G2 :||: ef|"G"g4 g2 ef|g2 d2 B2 G2|B3 B B2 B2|
"D"BA- AA A2 ef|"G"g4 g2 ef|g2 d2 B2 G2|"D"D2 FG ABcd |"G"BG- GG G2 :|
